src/icons/svg/color-picker.svg

<!--character:E199-->
<svg width="24" height="24" viewBox="0 0 24 24" xmlns="http://www.w3.org/2000/svg">
<path d="M18.2504 2C17.2906 2 16.331 2.36656 15.5989 3.09867L12.8547 5.8429L12.5894 5.57759C12.5117 5.49776 12.4189 5.43431 12.3163 5.39097C12.2137 5.34764 12.1034 5.32531 11.992 5.32531C11.8263 5.32535 11.6642 5.37483 11.5267 5.46743C11.3892 5.56003 11.2824 5.69153 11.2201 5.84513C11.1577 5.99873 11.1425 6.16744 11.1765 6.3297C11.2105 6.49196 11.2922 6.64039 11.411 6.75602L11.6551 7.00017L4.74407 13.9112C3.76339 14.8919 3.48264 15.9653 3.2743 16.7987C3.06596 17.632 2.93003 18.2253 2.24399 18.9114C2.08776 19.0677 2 19.2796 2 19.5006C2 19.7216 2.08776 19.9335 2.24399 20.0898L3.91071 21.7565C4.067 21.9127 4.27894 22.0005 4.49992 22.0005C4.72091 22.0005 4.93284 21.9127 5.08914 21.7565C5.77518 21.0705 6.36847 20.9345 7.20184 20.7262C8.0352 20.5179 9.10862 20.2371 10.0893 19.2564L17.0003 12.3454L17.2445 12.5895C17.3213 12.6695 17.4133 12.7334 17.515 12.7774C17.6168 12.8214 17.7263 12.8446 17.8372 12.8457C17.9481 12.8469 18.0581 12.8259 18.1607 12.7839C18.2634 12.742 18.3566 12.6801 18.435 12.6017C18.5134 12.5233 18.5754 12.43 18.6173 12.3274C18.6592 12.2247 18.6802 12.1147 18.6791 12.0038C18.678 11.893 18.6547 11.7834 18.6107 11.6817C18.5667 11.5799 18.5029 11.4879 18.4229 11.4111L18.1576 11.1458L20.9018 8.40158C22.3661 6.93736 22.3661 4.56288 20.9018 3.09867C20.1697 2.36656 19.2102 2 18.2504 2ZM12.8335 8.17859L15.8219 11.167L8.91088 18.078C8.22483 18.7641 7.63154 18.9 6.79818 19.1083C6.15943 19.268 5.3815 19.5724 4.6106 20.0996L3.90094 19.3899C4.42813 18.619 4.7325 17.8411 4.89219 17.2023C5.10053 16.369 5.23645 15.7757 5.9225 15.0896L12.8335 8.17859Z" />
</svg>

<!--character:E199-->
<svg width="24" height="24" viewBox="0 0 24 24" xmlns="http://www.w3.org/2000/svg">
  <path d="M18.2504 2c-.9598 0-1.9194.3666-2.6515 1.0987l-2.7442 2.7442-.2653-.2653a.8338.8338 0 00-.5974-.2523.8336.8336 0 00-.581 1.4307l.2441.2442-6.911 6.911c-.9807.9807-1.2615 2.0541-1.4698 2.8875-.2083.8333-.3443 1.4266-1.0303 2.1127a.8334.8334 0 000 1.1784l1.6667 1.6667a.8336.8336 0 001.1784 0c.686-.686 1.2794-.822 2.1127-1.0303.8334-.2083 1.9068-.4891 2.8875-1.4698l6.911-6.911.2442.2441a.8327.8327 0 00.9162.1944.8325.8325 0 00.4566-.4565.8347.8347 0 00-.0066-.6457.8333.8333 0 00-.1878-.2706l-.2653-.2653 2.7442-2.7442c1.4643-1.4642 1.4643-3.8387 0-5.303C20.1697 2.3667 19.2102 2 18.2504 2zm-5.4169 6.1786l2.9884 2.9884-6.911 6.911c-.686.6861-1.2794.822-2.1127 1.0303-.6388.1597-1.4167.4641-2.1876.9913l-.7097-.7097c.5272-.7709.8316-1.5488.9913-2.1876.2083-.8333.3442-1.4266 1.0303-2.1127l6.911-6.911z"/>
</svg>
